packages/icons/raw/imported/SecuritySecurityAttention.svg

<svg width="32" height="32" viewBox="0 0 32 32" fill="none" xmlns="http://www.w3.org/2000/svg">
<path d="M13.7938 24.4055L14.0479 23.9749L13.7938 24.4055ZM18.2062 24.4055L17.9521 23.9749L18.2062 24.4055ZM16.5 11.0001C16.5 10.724 16.2761 10.5001 16 10.5001C15.7239 10.5001 15.5 10.724 15.5 11.0001H16.5ZM15.5 16.3334C15.5 16.6096 15.7239 16.8334 16 16.8334C16.2761 16.8334 16.5 16.6096 16.5 16.3334H15.5ZM16.5 18.9723C16.5 18.6962 16.2761 18.4723 16 18.4723C15.7239 18.4723 15.5 18.6962 15.5 18.9723H16.5ZM15.5 20C15.5 20.2761 15.7239 20.5 16 20.5C16.2761 20.5 16.5 20.2761 16.5 20H15.5ZM12 7H20V6H12V7ZM23.5 10.5V15.8208H24.5V10.5H23.5ZM8.5 15.8208V10.5H7.5V15.8208H8.5ZM14.0479 23.9749C10.811 22.0649 8.5 19.1684 8.5 15.8208H7.5C7.5 19.6618 10.1413 22.8308 13.5397 24.8361L14.0479 23.9749ZM23.5 15.8208C23.5 19.1684 21.189 22.0649 17.9521 23.9749L18.4603 24.8361C21.8587 22.8308 24.5 19.6618 24.5 15.8208H23.5ZM13.5397 24.8361C15.0564 25.7311 16.9436 25.7311 18.4603 24.8361L17.9521 23.9749C16.7489 24.6848 15.2511 24.6848 14.0479 23.9749L13.5397 24.8361ZM20 7C21.933 7 23.5 8.567 23.5 10.5H24.5C24.5 8.01472 22.4853 6 20 6V7ZM12 6C9.51472 6 7.5 8.01472 7.5 10.5H8.5C8.5 8.56701 10.067 7 12 7V6ZM15.5 11.0001L15.5 16.3334H16.5V11.0001H15.5ZM15.5 18.9723V20H16.5V18.9723H15.5Z" fill="black"/>
</svg>

<svg width="32" height="32" fill="none" xmlns="http://www.w3.org/2000/svg"><path d="m13.794 24.405.254-.43-.254.43Zm4.412 0-.254-.43.254.43ZM16.5 11a.5.5 0 0 0-1 0h1Zm-1 5.333a.5.5 0 1 0 1 0h-1Zm1 2.64a.5.5 0 0 0-1 0h1ZM15.5 20a.5.5 0 0 0 1 0h-1ZM12 7h8V6h-8v1Zm11.5 3.5v5.32h1V10.5h-1Zm-15 5.32V10.5h-1v5.32h1Zm5.548 8.155C10.81 22.065 8.5 19.168 8.5 15.82h-1c0 3.84 2.641 7.01 6.04 9.015l.508-.861ZM23.5 15.82c0 3.347-2.311 6.244-5.548 8.154l.508.861c3.399-2.005 6.04-5.174 6.04-9.015h-1Zm-9.96 9.015a4.844 4.844 0 0 0 4.92 0l-.508-.861a3.845 3.845 0 0 1-3.904 0l-.508.861ZM20 7a3.5 3.5 0 0 1 3.5 3.5h1A4.5 4.5 0 0 0 20 6v1Zm-8-1a4.5 4.5 0 0 0-4.5 4.5h1A3.5 3.5 0 0 1 12 7V6Zm3.5 5v5.333h1V11h-1Zm0 7.972V20h1v-1.028h-1Z" fill="#000"/></svg>
